src/svgs/development.svg

<svg xmlns="http://www.w3.org/2000/svg" viewBox="0 0 24 24" width="512" height="512" aria-labelledby="cwdevelopment-desc cwdevelopment-title"><title id="cwdevelopment-title">Development Icon</title><desc id="cwdevelopment-desc">A picture depicting puzzle pieces.</desc><path d="M2 4V2h8v2H9a2 2 0 000 4h1v2H8v1a2 2 0 01-4 0v-1H2V8h1a2 2 0 000-4zm0 0V2h8v2H9a2 2 0 000 4h1v2H8v1a2 2 0 01-4 0v-1H2V8h1a2 2 0 000-4zm9 12h-1v-2H8v1a2 2 0 01-4 0v-1H2v8h8v-2h1a2 2 0 000-4zm3-14v2h-1a2 2 0 000 4h1v2h2V9a2 2 0 014 0v1h2V2zm8 18v2h-8v-2h1a2 2 0 000-4h-1v-2h2v-1a2 2 0 014 0v1h2v2h-1a2 2 0 000 4z"/></svg>

<svg xmlns="http://www.w3.org/2000/svg" viewBox="0 0 24 24"><path d="M2,4V2h8V4H9A2,2,0,0,0,9,8h1v2H8v1a2,2,0,0,1-4,0V10H2V8H3A2,2,0,0,0,3,4ZM2,4V2h8V4H9A2,2,0,0,0,9,8h1v2H8v1a2,2,0,0,1-4,0V10H2V8H3A2,2,0,0,0,3,4Zm9,12H10V14H8v1a2,2,0,0,1-4,0V14H2v8h8V20h1a2,2,0,0,0,0-4ZM14,2V4H13a2,2,0,0,0,0,4h1v2h2V9a2,2,0,0,1,4,0v1h2V2Zm8,18v2H14V20h1a2,2,0,0,0,0-4H14V14h2V13a2,2,0,0,1,4,0v1h2v2H21a2,2,0,0,0,0,4Z"/></svg>
